images/payments/creditcard.svg

<svg width="90" height="40" viewBox="0 0 90 40" fill="none" xmlns="http://www.w3.org/2000/svg">
<path fill-rule="evenodd" clip-rule="evenodd" d="M77.2976 26.9068V25.3281H76.9172V26.2431C76.7851 26.073 76.5788 25.9776 76.3637 25.9871C75.8782 26.0173 75.5 26.4198 75.5 26.9062C75.5 27.3926 75.8782 27.7951 76.3637 27.8253C76.5788 27.8348 76.7851 27.7394 76.9172 27.5693V27.7815H77.2976V26.9068ZM65.9459 26.0322H66.5681L66.5669 26.3818H65.9447V27.1723C65.9447 27.3465 66.0063 27.465 66.1971 27.465C66.3158 27.4612 66.4316 27.4274 66.5337 27.3667L66.644 27.6926C66.5017 27.7811 66.3374 27.828 66.1699 27.8277C65.7195 27.8277 65.5619 27.5859 65.5619 27.1794V26.3806H65.2063V26.0322H65.5619V25.5012H65.9459V26.0322ZM60.8792 26.684V27.7826H60.494V26.8084C60.494 26.5121 60.3696 26.3474 60.11 26.3474C59.9881 26.3415 59.8699 26.3899 59.7871 26.4795C59.7043 26.5692 59.6654 26.6909 59.681 26.812V27.7826H59.297V26.8084C59.297 26.5121 59.169 26.3474 58.9166 26.3474C58.7943 26.3402 58.6752 26.3882 58.5921 26.4782C58.509 26.5682 58.4706 26.6907 58.4875 26.812V27.7826H58.1035V26.0321H58.484V26.2478C58.5968 26.0764 58.7921 25.9776 58.9971 25.9883C59.2324 25.9785 59.4543 26.0981 59.5755 26.3C59.7084 26.0918 59.9441 25.9723 60.1906 25.9883C60.3777 25.9773 60.5604 26.0473 60.6922 26.1804C60.824 26.3136 60.8921 26.4971 60.8792 26.684ZM69.8167 25.9882C69.6278 25.9828 69.451 26.081 69.3557 26.2442V26.0321H68.9788V27.7826H69.3592V26.8013C69.3592 26.5121 69.4837 26.3509 69.7326 26.3509C69.8137 26.3499 69.8942 26.3648 69.9696 26.3948L70.0881 26.0392C70.001 26.0081 69.9092 25.9921 69.8167 25.9918V25.9882ZM64.1942 25.9883C64.4438 25.9798 64.6906 26.0431 64.9053 26.1708L64.7453 26.479C64.5793 26.3833 64.3917 26.3315 64.2001 26.3285C63.9915 26.3285 63.8671 26.4162 63.8671 26.5335C63.8671 26.6508 63.9986 26.6828 64.1634 26.7053L64.3423 26.7314C64.7228 26.7812 64.9539 26.9471 64.9539 27.2553C64.9539 27.5895 64.66 27.8265 64.1551 27.8265C63.8844 27.8339 63.6185 27.7542 63.3966 27.599L63.5755 27.3027C63.7434 27.4274 63.9484 27.4921 64.1575 27.4864C64.4182 27.4864 64.5569 27.4093 64.5569 27.2742C64.5569 27.1759 64.4573 27.1213 64.2487 27.0917L64.0697 27.0656C63.6774 27.0099 63.4653 26.8345 63.4653 26.5489C63.4653 26.2005 63.7509 25.9883 64.1942 25.9883ZM75.1086 25.9882C74.9196 25.9828 74.7428 26.081 74.6475 26.2442V26.0321H74.2707V27.7826H74.6511V26.8013C74.6511 26.5121 74.7755 26.3509 75.0244 26.3509C75.1055 26.3499 75.1861 26.3648 75.2615 26.3948L75.38 26.0392C75.2929 26.0081 75.2011 25.9921 75.1086 25.9918V25.9882ZM70.4637 27.5749C70.2858 27.3997 70.1903 27.1575 70.2007 26.908C70.1903 26.6585 70.2858 26.4162 70.4637 26.241C70.6416 26.0658 70.8853 25.974 71.1346 25.9883C71.3631 25.9769 71.5875 26.0513 71.764 26.1969L71.5815 26.505C71.4499 26.4046 71.2895 26.3493 71.124 26.3474C70.8285 26.3666 70.5987 26.6119 70.5987 26.908C70.5987 27.2041 70.8285 27.4493 71.124 27.4686C71.2895 27.4666 71.4499 27.4113 71.5815 27.3109L71.764 27.6191C71.5875 27.7646 71.3631 27.839 71.1346 27.8277C70.8853 27.8419 70.6416 27.7501 70.4637 27.5749ZM73.7682 26.9079V26.0333H73.3877V26.2454C73.2557 26.0754 73.0493 25.9799 72.8342 25.9894C72.3488 26.0196 71.9705 26.4222 71.9705 26.9085C71.9705 27.3949 72.3488 27.7974 72.8342 27.8276C73.0493 27.8371 73.2557 27.7417 73.3877 27.5716V27.7838H73.7682V26.9079ZM72.8946 26.4094C72.6065 26.3986 72.3627 26.6202 72.3459 26.908C72.336 27.0543 72.3877 27.1982 72.4885 27.3046C72.5894 27.4111 72.7302 27.4706 72.8769 27.4686C73.1652 27.4675 73.3996 27.236 73.4045 26.9477C73.4093 26.6594 73.1828 26.4202 72.8946 26.4094ZM67.7497 25.9883C67.2531 26.013 66.866 26.428 66.876 26.9252C66.8859 27.4224 67.2892 27.8216 67.7865 27.8265C68.0478 27.8355 68.3034 27.7482 68.5047 27.5811L68.3174 27.2991C68.1727 27.4152 67.9933 27.4794 67.8078 27.4816C67.5459 27.5038 67.3138 27.3137 67.2839 27.0525H68.5876C68.5876 27.0294 68.5893 27.0063 68.5911 26.9826V26.9826V26.9826V26.9826V26.9826V26.9826V26.9826V26.9825V26.9825V26.9825V26.9825C68.5929 26.9577 68.5947 26.9323 68.5947 26.9056C68.6174 26.6711 68.5404 26.4379 68.3826 26.2629C68.2248 26.088 68.0007 25.9875 67.7651 25.9859L67.7497 25.9883ZM68.1859 26.7527C68.1801 26.5134 67.982 26.3238 67.7426 26.3284C67.4983 26.3203 67.2921 26.5086 67.2781 26.7527H68.1859ZM76.4241 26.4083C76.136 26.3974 75.8922 26.619 75.8754 26.9068C75.8654 27.0532 75.9172 27.197 76.018 27.3035C76.1189 27.41 76.2597 27.4694 76.4064 27.4674C76.6947 27.4663 76.9291 27.2348 76.934 26.9465C76.9388 26.6583 76.7122 26.4191 76.4241 26.4083ZM63.0138 26.9068V26.0321H62.6333V26.2442C62.5013 26.0742 62.2949 25.9787 62.0798 25.9882C61.5944 26.0184 61.2161 26.421 61.2161 26.9074C61.2161 27.3937 61.5944 27.7963 62.0798 27.8265C62.2949 27.836 62.5013 27.7405 62.6333 27.5705V27.7826H63.0138V26.9068ZM62.1403 26.4083C61.8521 26.3974 61.6083 26.619 61.5915 26.9068L61.6081 26.9021C61.597 27.0464 61.6459 27.1888 61.7432 27.2958C61.8406 27.4028 61.9778 27.4649 62.1225 27.4674C62.4108 27.4663 62.6453 27.2348 62.6501 26.9465C62.6549 26.6583 62.4284 26.4191 62.1403 26.4083Z" fill="black"/>
<path d="M64.7808 12.6914H70.5491V23.0582H64.7808V12.6914Z" fill="#FF5F00"/>
<path d="M65.1469 17.8751C65.1455 15.8515 66.0752 13.9397 67.6678 12.6911C64.9646 10.5662 61.0824 10.8754 58.7496 13.4013C56.4168 15.9273 56.4168 19.8218 58.7496 22.3478C61.0824 24.8737 64.9646 25.1828 67.6678 23.0579C66.0755 21.8097 65.1459 19.8984 65.1469 17.8751Z" fill="#EB001B"/>
<path d="M78.3346 17.8755C78.335 20.3997 76.8939 22.7024 74.6235 23.8056C72.3532 24.9087 69.6522 24.6185 67.668 23.0583C69.2581 21.8083 70.1866 19.8975 70.1866 17.8749C70.1866 15.8522 69.2581 13.9415 67.668 12.6915C69.6522 11.1312 72.3532 10.841 74.6235 11.9442C76.8939 13.0473 78.335 15.3501 78.3346 17.8743V17.8755Z" fill="#F79E1B"/>
<path fill-rule="evenodd" clip-rule="evenodd" d="M25.5483 16.3437L25.252 18.0622C24.3631 17.5763 22.3246 17.4815 22.3246 18.3822C22.3246 18.7438 22.7944 19.0041 23.3568 19.3158C24.1955 19.7806 25.2402 20.3596 25.2402 21.5585C25.2402 23.5615 23.1069 24.2963 21.6846 24.2963C20.8718 24.3127 20.0644 24.1593 19.3143 23.8459L19.6224 22.0444C20.4757 22.72 23.0594 22.9096 23.0594 21.8311C23.0594 21.3872 22.5716 21.1441 21.9974 20.858C21.1766 20.4489 20.1794 19.952 20.1794 18.6548C20.1794 16.4504 22.6446 16 23.6757 16C24.3142 16.0147 24.9463 16.1307 25.5483 16.3437ZM14.1941 16.1304L12.203 21.6415L11.9659 20.4564L11.2667 16.9008C11.2374 16.6617 11.1124 16.4448 10.9203 16.2996C10.7282 16.1544 10.4854 16.0933 10.2474 16.1304H7V16.2727C7.76924 16.4637 8.50468 16.7715 9.18074 17.1852L10.9941 24.1423H13.163L16.4815 16.1304H14.1941ZM18.0344 24.1419H15.9485L17.2522 16.1301H19.3381L18.0344 24.1419ZM32.5054 24.1424H30.5854L30.3957 22.9453H27.7528L27.3143 24.1305H25.1454L28.2506 16.7231C28.4085 16.3386 28.796 16.0993 29.2106 16.1305H30.8343L32.5054 24.1424ZM28.286 21.3213L29.3882 18.3228L30.0045 21.3213H28.286Z" fill="#282F67"/>
<path d="M12.5704 20.7643L11.8712 17.2087C11.8419 16.9697 11.7169 16.7527 11.5248 16.6075C11.3327 16.4623 11.0899 16.4012 10.8519 16.4384H7.60449V16.5806C8.71425 16.8566 9.75256 17.3657 10.6504 18.0739C11.5213 18.7812 12.1847 19.7108 12.5704 20.7643Z" fill="#F8AA1A"/>
</svg>

<svg xmlns="http://www.w3.org/2000/svg" width="90" height="40" fill="none"><path fill="#000" fill-rule="evenodd" d="M77.298 26.907v-1.579h-.38v.915a.664.664 0 0 0-.554-.256.92.92 0 0 0 0 1.838.664.664 0 0 0 .553-.256v.213h.38zm-11.352-.875h.622l-.001.35h-.622v.79c0 .174.061.293.252.293a.703.703 0 0 0 .337-.098l.11.326a.895.895 0 0 1-.474.135c-.45 0-.608-.242-.608-.649v-.798h-.356v-.349h.356v-.53h.384zm-5.067.652v1.099h-.385v-.975c0-.296-.124-.46-.384-.46a.413.413 0 0 0-.429.464v.97h-.384v-.974c0-.296-.128-.46-.38-.46a.409.409 0 0 0-.43.464v.97h-.384v-1.75h.381v.216a.578.578 0 0 1 .513-.26c.235-.01.457.11.578.312a.678.678 0 0 1 .616-.312.652.652 0 0 1 .688.696m8.938-.696a.517.517 0 0 0-.461.256v-.212h-.377v1.75h.38v-.98c0-.29.125-.451.374-.451a.62.62 0 0 1 .237.044l.118-.356a.815.815 0 0 0-.271-.047zm-5.623 0c.25-.008.497.055.711.183l-.16.308a1.127 1.127 0 0 0-.545-.15c-.209 0-.333.087-.333.204 0 .118.132.15.296.172l.18.026c.38.05.61.216.61.524 0 .335-.293.572-.798.572a1.263 1.263 0 0 1-.758-.228l.178-.296a.93.93 0 0 0 .582.183c.261 0 .4-.077.4-.212 0-.098-.1-.153-.308-.182l-.18-.026c-.392-.056-.604-.232-.604-.517 0-.348.286-.56.73-.56m10.915 0a.517.517 0 0 0-.462.256v-.212h-.376v1.75h.38v-.98c0-.29.124-.451.373-.451a.62.62 0 0 1 .237.044l.119-.356a.815.815 0 0 0-.271-.047zm-4.645 1.587a.884.884 0 0 1-.263-.667.884.884 0 0 1 .934-.92.917.917 0 0 1 .629.209l-.182.308a.769.769 0 0 0-.458-.158.562.562 0 0 0 0 1.122.77.77 0 0 0 .458-.158l.182.308a.918.918 0 0 1-.63.209.884.884 0 0 1-.67-.253m3.304-.667v-.875h-.38v.212a.664.664 0 0 0-.554-.256.921.921 0 0 0 0 1.839.664.664 0 0 0 .554-.256v.212h.38zm-.873-.499a.53.53 0 1 0-.04 1.06.53.53 0 0 0 .04-1.06m-5.145-.42a.92.92 0 0 0 .037 1.837c.26.01.516-.078.718-.245l-.188-.282a.83.83 0 0 1-.51.183.486.486 0 0 1-.523-.43h1.304l.003-.07a.918.918 0 0 0 .004-.076.839.839 0 0 0-.83-.92zm.436.764a.435.435 0 0 0-.443-.425.45.45 0 0 0-.465.425zm8.238-.345a.53.53 0 1 0-.04 1.059.53.53 0 0 0 .04-1.059m-13.41.499v-.875h-.38v.212a.664.664 0 0 0-.554-.256.921.921 0 0 0 0 1.838.664.664 0 0 0 .553-.256v.213h.38zm-.874-.499a.53.53 0 0 0-.548.499l.016-.005a.525.525 0 0 0 .515.565.53.53 0 0 0 .017-1.059" clip-rule="evenodd"/><path fill="#FF5F00" d="M64.78 12.691h5.77v10.367h-5.77z"/><path fill="#EB001B" d="M65.147 17.875a6.582 6.582 0 0 1 2.52-5.184 6.593 6.593 0 1 0 0 10.367 6.581 6.581 0 0 1-2.52-5.183"/><path fill="#F79E1B" d="M78.335 17.876a6.592 6.592 0 0 1-10.667 5.182 6.593 6.593 0 0 0 0-10.366 6.592 6.592 0 0 1 10.667 5.182z"/><path fill="#282F67" fill-rule="evenodd" d="m25.548 16.344-.296 1.718c-.889-.486-2.927-.58-2.927.32 0 .362.47.622 1.032.934.838.465 1.883 1.044 1.883 2.242 0 2.003-2.133 2.738-3.555 2.738a5.843 5.843 0 0 1-2.37-.45l.307-1.802c.854.676 3.437.866 3.437-.213 0-.444-.487-.687-1.062-.973-.82-.41-1.818-.906-1.818-2.203 0-2.205 2.466-2.655 3.497-2.655a6.03 6.03 0 0 1 1.872.344m-11.354-.214-1.991 5.512-.237-1.186-.7-3.555a.89.89 0 0 0-1.019-.77H7v.142c.77.19 1.505.498 2.18.912l1.814 6.957h2.169l3.319-8.012zm3.84 8.012H15.95l1.303-8.012h2.086zm14.471 0h-1.92l-.19-1.197h-2.642l-.439 1.186h-2.169l3.106-7.408a.96.96 0 0 1 .96-.592h1.623zm-4.219-2.82 1.102-3 .616 3z" clip-rule="evenodd"/><path fill="#F8AA1A" d="m12.57 20.764-.699-3.555a.89.89 0 0 0-1.02-.77H7.605v.142a8.059 8.059 0 0 1 3.046 1.493 6.221 6.221 0 0 1 1.92 2.69"/></svg>
